src/assets/images/folder.svg

<?xml version="1.0"?>
<svg xmlns="http://www.w3.org/2000/svg" viewBox="0 0 50 50" width="50px" height="50px">
  <path d="M 5 4 C 3.346 4 2 5.346 2 7 L 2 13 L 3 13 L 47 13 L 48 13 L 48 11 C 48 9.346 46.654 8 45 8 L 18.044922 8.0058594 C 17.765922 7.9048594 17.188906 6.9861875 16.878906 6.4921875 C 16.111906 5.2681875 15.317 4 14 4 L 5 4 z M 3 15 C 2.448 15 2 15.448 2 16 L 2 43 C 2 44.657 3.343 46 5 46 L 45 46 C 46.657 46 48 44.657 48 43 L 48 16 C 48 15.448 47.552 15 47 15 L 3 15 z" fill="rgb(152, 152, 152)" />
</svg>

<svg xmlns="http://www.w3.org/2000/svg" width="50" height="50"><path fill="#989898" d="M5 4C3.346 4 2 5.346 2 7v6h46v-2c0-1.654-1.346-3-3-3l-26.955.006c-.28-.101-.856-1.02-1.166-1.514C16.112 5.268 15.317 4 14 4zM3 15a1 1 0 0 0-1 1v27a3 3 0 0 0 3 3h40a3 3 0 0 0 3-3V16a1 1 0 0 0-1-1z"/></svg>
